app/assets/images/heroicons/solid/cube.svg

<svg width="24" height="24" viewBox="0 0 24 24" fill="none" xmlns="http://www.w3.org/2000/svg">
<path d="M12.3779 1.60217C12.1444 1.46594 11.8556 1.46594 11.6221 1.60217L3 6.63172L12 11.8817L21 6.63172L12.3779 1.60217Z" fill="#0F172A"/>
<path d="M21.75 7.93078L12.75 13.1808V22.1808L21.3779 17.1478C21.6083 17.0134 21.75 16.7668 21.75 16.5V7.93078Z" fill="#0F172A"/>
<path d="M11.25 22.1808V13.1808L2.25 7.93078V16.5C2.25 16.7668 2.39168 17.0134 2.6221 17.1478L11.25 22.1808Z" fill="#0F172A"/>
</svg>

<svg xmlns="http://www.w3.org/2000/svg" viewBox="0 0 24 24" fill="currentColor" aria-hidden="true" data-slot="icon">
  <path d="M12.378 1.602a.75.75 0 0 0-.756 0L3 6.632l9 5.25 9-5.25-8.622-5.03ZM21.75 7.93l-9 5.25v9l8.628-5.032a.75.75 0 0 0 .372-.648V7.93ZM11.25 22.18v-9l-9-5.25v8.57a.75.75 0 0 0 .372.648l8.628 5.033Z"/>
</svg>
